X:1
T:Title
%%score ( 1 2 ) ( 3 4 )
L:1/8
Q:1/4=75
M:6/8
K:D
V:1 treble nm="Strings 1, SOPRANO ALTO"
V:2 treble 
V:3 bass nm="Strings 1, TENOR BASS"
V:4 bass 
V:1
 [A,D][DF][DF] [DF][DE]D | [DG][DA][DB] [DA]3 | [A,D][A,D][DF] [DA][CG][DF] | [CE]3- [CE]2 [DF] | %4
w: 1.~Pil grim~ of~ Je sus,~ o'er~|life's~ trou bled~ sea,~|Cour age,~ and~ on ward~ pur|sue;~ * A~|
 D[DF][DF] [DF][DE]D | [DE][DF][DG] [DB]3 | [GB][Gc][Gd] [GA][GB][Gc] | [Fd]6 | %8
w: crown~ of~ re joic ing~ is~|wait ing~ for~ thee,~|Ev er~ keep~ heav en~ in~|view.~|
 [GB][GB][GB] [Bd][Ac][GB] | [FA]6 | [DG][DA][DB] [DA][DF]D | A6 | D[DF][DF] [DF][DE]D | %13
w: |||||
 [DE][DF][DG] [DB]3 | [GB][Gc][Gd] [GA][GB][Gc] | [Fd]6 |] %16
w: |||
V:2
 x6 | x6 | x6 | x6 | x6 | x6 | x6 | x6 | x6 | x6 | x6 | C2 D .E3 | x6 | x6 | x6 | x6 |] %16
V:3
 [D,F,][D,A,][D,A,] [D,A,][D,G,][D,F,] | [B,,G,][A,,F,][G,,G,] [D,F,]3 | %2
 [D,F,][D,F,][D,A,] [F,A,][E,A,][D,A,] | [A,,A,]3- [A,,A,]2 [D,A,] | %4
 [D,F,][D,A,][D,A,] [D,A,][D,G,][D,F,] | [B,,G,][B,,A,][B,,G,] [G,,G,]3 | %6
 G,[G,A,][G,B,] [A,C][A,D][A,,E] | [D,D]6 | [G,D][G,D][G,D] [G,D][G,D][G,D] | [D,D]6 | %10
 [B,,G,][A,,F,][G,,G,] [D,F,][D,A,][D,F,] | E,2 F, .G,3 | [D,F,][D,A,][D,A,] [D,A,][D,G,][D,F,] | %13
 [B,,G,][B,,A,][B,,G,] [G,,G,]3 | G,[G,A,][G,B,] [A,C][A,D][A,,E] | [D,D]6 |] %16
V:4
 x6 | x6 | x6 | x6 | x6 | x6 | x6 | x6 | x6 | x6 | x6 | G,,6 | x6 | x6 | x6 | x6 |] %16

